X:1
T:James Baden-Powell
T:Salve Festa Dies
%%score 1 { ( 2 3 ) | ( 4 5 ) } { ( 6 7 ) | ( 8 9 10 ) }
L:1/8
Q:1/4=184
M:4/2
K:C
V:1 treble nm="Voice" snm="Vo."
V:2 treble nm="Piano" snm="Pno."
V:3 treble 
V:4 bass 
V:5 bass 
V:6 treble nm="Organ" snm="Org."
V:7 treble 
V:8 bass 
V:9 bass 
V:10 bass 
V:1
"^Presto" z16 | z16 | z16 | z16 | z16 | z16 | z16 | z16 | c4 z4 E6 F2 | G12 G4 | A4 B4 c4 c4 | %11
 B12 B4 | (B4 c4 d4) (c2 B2) | c4 (B2 A2) G4 A4 | G12 G4 | G16 | z16 | z16 | z16 | z16 | z16 | %21
 z16 | z16 | z16 | (E6 F2) G4 G4 | (G4 F4 E4) E4 | F4 G4 A4 A4 | ^G16 | A8 B4 c4 | (c4 B4 A4) c4 | %30
 B4 A4 G4 A4 | G16 | z16 | z16 | z16 | z16 | z16 | z16 | z16 | z16 | G4 | (A4 B4 c4) c4 | %42
 (B4 A4 G4) G4 | A4 B4 c4 c4 | B12 ^F4 | (G4 A4 B4) c4 | d4 B4 G4 c4 | A12 A4 | G16 | z16 | z16 | %51
 z16 | z16 | z16 | z16 | z16 | z16 | G4 | c6 c2 c4 c4 | (c8 B4) E4 | A6 B2 c4 d4 | e12 d4 | %62
 (c6 B2 A4) c4 | (B6 A2 G4) c4 | d4 e4 A4 A4 | G16 | z16 | z16 | z16 | z16 | z16 | z16 | z16 | %73
 z16 | G4 | c6 c2 c4 c4 | (c8 B4) E4 | A6 B2 c4 d4 | e12 d4 | (c6 B2 A4) c4 | (B6 A2 G4) c4 | %81
 d4 e4 A4 A4 | G16 | z16 | z16 | z16 | z16 | z16 | z16 | z16 | z16 | c8 E6 F2 | G12 G4 | %93
 A4 B4 c4 c4 | B12 B4 | (B4 c4 d4) (c2 B2) | c4 (B2 A2) G4 A4 | G12 G4 | G16 | z16 | z16 | z16 | %102
 z16 | z16 | z16 | z16 | z16 | E4 | (E6 F2 G4) G4 | (G4 F4) E4 z4 | F4 G4 A4 A4 | ^G16 | A8 B4 c4 | %113
 (c4 B4 A4) c4 | B4 A4 G4 A4 | G16 | z16 | z16 | z16 | z16 | z16 | z16 | z16 | z16 | G4 | %125
 c6 c2 c4 c4 | (c8 B4) E4 | A6 B2 c4 d4 | e12 d4 | (c6 B2 A4) c4 | (B6 A2 G4) c4 | d4 e4 A4 A4 | %132
 G16 | z16 | z16 | z16 | z16 | z16 | z16 | z16 | z16 | G4 | c6 c2 c4 c4 | (c8 B4) E4 | %144
 A6 B2 c4 d4 | e12 d4 | (c6 B2 A4) c4 | (B6 A2 G4) c4 | d4 e4 A4 A4 | G16 | z16 | z16 | z16 | z16 | %154
 z16 | z16 | z16 | z16 | c8 E6 F2 | G4 G4 G4 G4 | A4 B4 c4 c4 | B12 B4 | (B4 c4 d4) (c2 B2) | %163
 c4 (B2 A2) G4 A4 | G12 G4 | G16 | z16 | z16 | z16 | z16 | z16 | z16 | z16 | z16 |] %174
V:2
 z16 | z16 | z16 | z16 | z16 | z16 | z16 | z16 | z16 | z16 | z16 | z16 | z16 | z16 | z16 | z16 | %16
 c4 z4 E6 F2 | G12 G4 | A4 B4 c4 c4 | B12 B4 | (B4 c4 d4 c2) B2 | c4 (B2 A2) G4 A4 | G12 G4 | G16 | %24
 z16 | z16 | z16 | z16 | z16 | z16 | z16 | z16 | c4 z4 E6 F2 | G12 G4 | A4 B4 c4 c4 | B12 B4 | %36
 (B4 c4 d4 c2) B2 | c4 (B2 A2) G4 A4 | G12 G4 | G16 | z4 | z16 | z16 | z16 | z16 | z16 | z16 | %47
 z16 | z16 | c4 z4 E6 F2 | G12 G4 | A4 B4 c4 c4 | B12 B4 | (B4 c4 d4 c2) B2 | c4 (B2 A2) G4 A4 | %55
 G12 G4 | G16 | z4 | z16 | z16 | z16 | z16 | z16 | z16 | z16 | z16 | c4 z4 E6 F2 | G12 G4 | %68
 A4 B4 c4 c4 | B12 B4 | (B4 c4 d4 c2) B2 | c4 (B2 A2) G4 A4 | G12 G4 | G16 | z4 | z16 | z16 | z16 | %78
 z16 | z16 | z16 | z16 | z16 | c4 z4 E6 F2 | G12 G4 | A4 B4 c4 c4 | B12 B4 | (B4 c4 d4 c2) B2 | %88
 c4 (B2 A2) G4 A4 | G12 G4 | G16 | z16 | z16 | z16 | z16 | z16 | z16 | z16 | z16 | c4 z4 E6 F2 | %100
 G12 G4 | A4 B4 c4 c4 | B12 B4 | (B4 c4 d4 c2) B2 | c4 (B2 A2) G4 A4 | G12 G4 | G16 | z4 | z16 | %109
 z16 | z16 | z16 | z16 | z16 | z16 | z16 | c4 z4 E6 F2 | G12 G4 | A4 B4 c4 c4 | B12 B4 | %120
 (B4 c4 d4 c2) B2 | c4 (B2 A2) G4 A4 | G12 G4 | G16 | z4 | z16 | z16 | z16 | z16 | z16 | z16 | %131
 z16 | z16 | c4 z4 E6 F2 | G12 G4 | A4 B4 c4 c4 | B12 B4 | (B4 c4 d4 c2) B2 | c4 (B2 A2) G4 A4 | %139
 G12 G4 | G16 | z4 | z16 | z16 | z16 | z16 | z16 | z16 | z16 | z16 | c4 z4 E6 F2 | G12 G4 | %152
 A4 B4 c4 c4 | B12 B4 | (B4 c4 d4 c2) B2 | c4 (B2 A2) G4 A4 | G12 G4 | G16 | z16 | z16 | z16 | %161
 z16 | z16 | z16 | z16 | z16 | c4 z4 E6 F2 | G12 G4 | A4 B4 c4 c4 | B12 B4 | (B4 c4 d4 c2) B2 | %171
 c4 (B2 A2) G4 A4 | G12 G4 | G16 |] %174
V:3
 x16 | x16 | x16 | x16 | x16 | x16 | x16 | x16 | x16 | x16 | x16 | x16 | x16 | x16 | x16 | x16 | %16
 c4 z4 E6 F2 | G12 E4 | F4 G4 G4 ^F4 | G12 A4 | (^G4 A8 G4 | A2) (G2 F4 E4 F4 | D12 E2) F2 | E16 | %24
 x16 | x16 | x16 | x16 | x16 | x16 | x16 | x16 | c4 z4 E6 F2 | G12 E4 | F4 G4 G4 ^F4 | G12 A4 | %36
 (^G4 A8 G4 | A2) (G2 F4 E4 F4 | D12 E2) F2 | E16 | x4 | x16 | x16 | x16 | x16 | x16 | x16 | x16 | %48
 x16 | c4 z4 E6 F2 | G12 E4 | F4 G4 G4 ^F4 | G12 A4 | (^G4 A8 G4 | A2) (G2 F4 E4 F4 | D12 E2) F2 | %56
 E16 | x4 | x16 | x16 | x16 | x16 | x16 | x16 | x16 | x16 | c4 z4 E6 F2 | G12 E4 | F4 G4 G4 ^F4 | %69
 G12 A4 | ^G4 A8 G4 | A2 G2 F4 E4 F4 | D12 E2 F2 | E16 | x4 | x16 | x16 | x16 | x16 | x16 | x16 | %81
 x16 | x16 | c4 z4 E6 F2 | G12 E4 | F4 G4 G4 ^F4 | G12 A4 | ^G4 A8 G4 | A2 G2 F4 E4 F4 | %89
 D12 E2 F2 | E16 | x16 | x16 | x16 | x16 | x16 | x16 | x16 | x16 | c4 z4 E6 F2 | G12 E4 | %101
 F4 G4 G4 ^F4 | G12 A4 | ^G4 A8 G4 | A2 G2 F4 E4 F4 | D12 E2 F2 | E16 | x4 | x16 | x16 | x16 | %111
 x16 | x16 | x16 | x16 | x16 | c4 z4 E6 F2 | G12 E4 | F4 G4 G4 ^F4 | G12 A4 | ^G4 A8 G4 | %121
 A2 G2 F4 E4 F4 | D12 E2 F2 | E16 | x4 | x16 | x16 | x16 | x16 | x16 | x16 | x16 | x16 | %133
 c4 z4 E6 F2 | G12 E4 | F4 G4 G4 ^F4 | G12 A4 | ^G4 A8 G4 | A2 G2 F4 E4 F4 | D12 E2 F2 | E16 | x4 | %142
 x16 | x16 | x16 | x16 | x16 | x16 | x16 | x16 | c4 z4 E6 F2 | G12 E4 | F4 G4 G4 ^F4 | G12 A4 | %154
 ^G4 A8 G4 | A2 G2 F4 E4 F4 | D12 E2 F2 | E16 | x16 | x16 | x16 | x16 | x16 | x16 | x16 | x16 | %166
 c4 z4 E6 F2 | G12 E4 | F4 G4 G4 ^F4 | G12 A4 | ^G4 A8 G4 | A2 G2 F4 E4 F4 | D12 E2 F2 | E16 |] %174
V:4
 x16 | x16 | x16 | x16 | x16 | x16 | x16 | x16 | x16 | x16 | x16 | x16 | x16 | x16 | x16 | x16 | %16
 C4 z4 E,6 F,2 | G,12 C4 | C4 D4 C4 A,4 | (B,4 C4 D4) ^D4 | (E8 F4) D4 | C4 D4 E4 C4 | %22
 (C4 B,2 A,2 B,4) (C2 D2) | C16 | x16 | x16 | x16 | x16 | x16 | x16 | x16 | x16 | C4 z4 E,6 F,2 | %33
 G,12 C4 | C4 D4 C4 A,4 | (B,4 C4 D4) ^D4 | (E8 F4) D4 | C4 D4 E4 C4 | (C4 B,2 A,2 B,4) (C2 D2) | %39
 C16 | x4 | x16 | x16 | x16 | x16 | x16 | x16 | x16 | x16 | C4 z4 E,6 F,2 | G,12 C4 | %51
 C4 D4 C4 A,4 | (B,4 C4 D4) ^D4 | (E8 F4) D4 | C4 D4 E4 C4 | (C4 B,2 A,2 B,4) (C2 D2) | C16 | x4 | %58
 x16 | x16 | x16 | x16 | x16 | x16 | x16 | x16 | C4 z4 E,6 F,2 | G,12 C4 | C4 D4 C4 A,4 | %69
 (B,4 C4 D4) ^D4 | (E8 F4) D4 | C4 D4 E4 C4 | (C4 B,2 A,2 B,4) (C2 D2) | C16 | x4 | x16 | x16 | %77
 x16 | x16 | x16 | x16 | x16 | x16 | C4 z4 E,6 F,2 | G,12 C4 | C4 D4 C4 A,4 | (B,4 C4 D4) ^D4 | %87
 (E8 F4) D4 | C4 D4 E4 C4 | (C4 B,2 A,2 B,4) (C2 D2) | C16 | x16 | x16 | x16 | x16 | x16 | x16 | %97
 x16 | x16 | C4 z4 E,6 F,2 | G,12 C4 | C4 D4 C4 A,4 | (B,4 C4 D4) ^D4 | (E8 F4) D4 | C4 D4 E4 C4 | %105
 (C4 B,2 A,2 B,4) (C2 D2) | C16 | x4 | x16 | x16 | x16 | x16 | x16 | x16 | x16 | x16 | %116
 C4 z4 E,6 F,2 | G,12 C4 | C4 D4 C4 A,4 | (B,4 C4 D4) ^D4 | (E8 F4) D4 | C4 D4 E4 C4 | %122
 (C4 B,2 A,2 B,4) (C2 D2) | C16 | x4 | x16 | x16 | x16 | x16 | x16 | x16 | x16 | x16 | %133
 C4 z4 E,6 F,2 | G,12 C4 | C4 D4 C4 A,4 | (B,4 C4 D4) ^D4 | (E8 F4) D4 | C4 D4 E4 C4 | %139
 (C4 B,2 A,2 B,4) (C2 D2) | C16 | x4 | x16 | x16 | x16 | x16 | x16 | x16 | x16 | x16 | %150
 C4 z4 E,6 F,2 | G,12 C4 | C4 D4 C4 A,4 | (B,4 C4 D4) ^D4 | (E8 F4) D4 | C4 D4 E4 C4 | %156
 (C4 B,2 A,2 B,4) (C2 D2) | C16 | x16 | x16 | x16 | x16 | x16 | x16 | x16 | x16 | C4 z4 E,6 F,2 | %167
 G,12 C4 | C4 D4 C4 A,4 | (B,4 C4 D4) ^D4 | (E8 F4) D4 | C4 D4 E4 C4 | (C4 B,2 A,2 B,4) (C2 D2) | %173
 C16 |] %174
V:5
 x16 | x16 | x16 | x16 | x16 | x16 | x16 | x16 | x16 | x16 | x16 | x16 | x16 | x16 | x16 | x16 | %16
 C4 z4 E,6 F,2 | G,12 C,4 | F,4 F,4 E,4 A,4 | (G,4 A,4 G,4) F,4 | (E,4 D,2 C,2 B,,4) E,4 | %21
 A,4 B,4 C4 F,4 | G,12 G,4 | [C,G,]16 | z16 | x16 | x16 | x16 | x16 | x16 | x16 | x16 | %32
 C4 z4 E,6 F,2 | G,12 C,4 | F,4 F,4 E,4 A,4 | (G,4 A,4 G,4) F,4 | (E,4 D,2 C,2 B,,4) E,4 | %37
 A,4 B,4 C4 F,4 | G,12 G,4 | [C,G,]16 | x4 | x16 | x16 | x16 | x16 | x16 | x16 | x16 | x16 | %49
 C4 z4 E,6 F,2 | G,12 C,4 | F,4 F,4 E,4 A,4 | (G,4 A,4 G,4) F,4 | (E,4 D,2 C,2 B,,4) E,4 | %54
 A,4 B,4 C4 F,4 | G,12 G,4 | [C,G,]16 | x4 | x16 | x16 | x16 | x16 | x16 | x16 | x16 | x16 | %66
 C4 z4 E,6 F,2 | G,12 C,4 | F,4 F,4 E,4 A,4 | (G,4 A,4 G,4) F,4 | (E,4 D,2 C,2 B,,4) E,4 | %71
 A,4 B,4 C4 F,4 | G,12 G,4 | [C,G,]16 | x4 | x16 | x16 | x16 | x16 | x16 | x16 | x16 | x16 | %83
 C4 z4 E,6 F,2 | G,12 C,4 | F,4 F,4 E,4 A,4 | (G,4 A,4 G,4) F,4 | (E,4 D,2 C,2 B,,4) E,4 | %88
 A,4 B,4 C4 F,4 | G,12 G,4 | [C,G,]16 | x16 | x16 | x16 | x16 | x16 | x16 | x16 | x16 | %99
 C4 z4 E,6 F,2 | G,12 C,4 | F,4 F,4 E,4 A,4 | (G,4 A,4 G,4) F,4 | (E,4 D,2 C,2 B,,4) E,4 | %104
 A,4 B,4 C4 F,4 | G,12 G,4 | [C,G,]16 | x4 | x16 | x16 | x16 | x16 | x16 | x16 | x16 | x16 | %116
 C4 z4 E,6 F,2 | G,12 C,4 | F,4 F,4 E,4 A,4 | (G,4 A,4 G,4) F,4 | (E,4 D,2 C,2 B,,4) E,4 | %121
 A,4 B,4 C4 F,4 | G,12 G,4 | [C,G,]16 | x4 | x16 | x16 | x16 | x16 | x16 | x16 | x16 | x16 | %133
 C4 z4 E,6 F,2 | G,12 C,4 | F,4 F,4 E,4 A,4 | (G,4 A,4 G,4) F,4 | (E,4 D,2 C,2 B,,4) E,4 | %138
 A,4 B,4 C4 F,4 | G,12 G,4 | [C,G,]16 | x4 | x16 | x16 | x16 | x16 | x16 | x16 | x16 | x16 | %150
 C4 z4 E,6 F,2 | G,12 C,4 | F,4 F,4 E,4 A,4 | (G,4 A,4 G,4) F,4 | (E,4 D,2 C,2 B,,4) E,4 | %155
 A,4 B,4 C4 F,4 | G,12 G,4 | [C,G,]16 | x16 | x16 | x16 | x16 | x16 | x16 | x16 | x16 | %166
 C4 z4 E,6 F,2 | G,12 C,4 | F,4 F,4 E,4 A,4 | (G,4 A,4 G,4) F,4 | (E,4 D,2 C,2 B,,4) E,4 | %171
 A,4 B,4 C4 F,4 | G,12 G,4 | [C,G,]16 |] %174
V:6
 c4 z4 E6 F2 | G12 G4 | A4 B4 c4 c4 | B12 B4 | (B4 c4 d4) (c2 B2) | c4 (d2 e2) f4 (g2 a2) | %6
 [Gg]16 | [Gg]16 | z16 | z16 | z16 | z16 | z16 | z16 | z16 | z16 | c4 z4 E6 F2 | G12 G4 | %18
 A4 B4 c4 c4 | B12 B4 | (B4 c4 d4) (c2 B2) | c4 (B2 A2) G4 A4 | G12 G4 | G16 | (E6 F2) G8 | %25
 (G4 F4) E8 | F4 G4 A4 A4 | ^G16 | A8 B4 c4 | (c4 B4 A4) c4 | B4 A4 G4 A4 | G16 | c4 z4 E6 F2 | %33
 G12 G4 | A4 B4 c4 c4 | B12 B4 | (B4 c4 d4) (c2 B2) | c4 (B2 A2) G4 A4 | G12 G4 | G16 | G4 | %41
 (A4 B4 c4) c4 | (B4 A4 G4) G4 | A4 B4 c4 c4 | B12 ^F4 | (G4 A4 B4) c4 | d4 B4 G4 c4 | A12 A4 | %48
 G16 | c4 z4 E6 F2 | G12 G4 | A4 B4 c4 c4 | B12 B4 | (B4 c4 d4) (c2 B2) | c4 (B2 A2) G4 A4 | %55
 G12 G4 | G16 | G4 | c6 G2 c4 c4 | G12 B4 | A6 ^G2 A4 A4 | ^G12 G4 | (A6 B2 c4) ^F4 | %63
 (G6 A2 B4) c4 | d4 e4 A4 A4 | G16 | c4 z4 E6 F2 | G12 G4 | A4 B4 c4 c4 | B12 B4 | %70
 (B4 c4 d4) (c2 B2) | c4 (B2 A2) G4 A4 | G12 G4 | G16 | G4 | c6 G2 c4 c4 | G12 B4 | A6 ^G2 A4 A4 | %78
 ^G12 G4 | (A6 B2 c4) ^F4 | (G6 A2 B4) C4 | d4 e4 A4 A4 | G16 | c4 z4 E6 F2 | G12 G4 | %85
 A4 B4 c4 c4 | B12 B4 | (B4 c4 d4) (c2 B2) | c4 (B2 A2) G4 A4 | G12 G4 | G16 | c8 E6 F2 | G12 G4 | %93
 A4 B4 c4 c4 | B12 B4 | (B4 c4 d4) (c2 B2) | c4 (B2 A2) G4 A4 | G12 G4 | G16 | c4 z4 E6 F2 | %100
 G12 G4 | A4 B4 c4 c4 | B12 B4 | (B4 c4 d4) (c2 B2) | c4 (B2 A2) G4 A4 | G12 G4 | G16 | E4 | %108
 (E6 F2) G4 G4 | G4 F4 E8 | F4 G4 A4 A4 | ^G16 | A8 B4 c4 | (c4 B4 A4) c4 | B4 A4 G4 A4 | G16 | %116
 c4 z4 E6 F2 | G12 G4 | A4 B4 c4 c4 | B12 B4 | (B4 c4 d4) (c2 B2) | c4 (B2 A2) G4 A4 | G12 G4 | %123
 G16 | G4 | c6 G2 c4 c4 | G12 B4 | A6 ^G2 A4 A4 | ^G12 G4 | (A6 B2 c4) ^F4 | (G6 A2 B4) c4 | %131
 d4 e4 A4 A4 | G16 | c4 z4 E6 F2 | G12 G4 | A4 B4 c4 c4 | B12 B4 | (B4 c4 d4) (c2 B2) | %138
 c4 (B2 A2) G4 A4 | G12 G4 | G16 | G4 | c6 G2 c4 c4 | G12 B4 | A6 ^G2 A4 A4 | ^G12 G4 | %146
 (A6 B2 c4) ^F4 | (G6 A2 B4) c4 | d4 e4 A4 A4 | G16 | c4 z4 E6 F2 | G12 G4 | A4 B4 c4 c4 | B12 B4 | %154
 (B4 c4 d4) (c2 B2) | c4 (B2 A2) G4 A4 | G12 G4 | G16 | c8 E6 F2 | G12 G4 | A4 B4 c4 c4 | B12 B4 | %162
 (B4 c4 d4) (c2 B2) | c4 (B2 A2) G4 A4 | G12 G4 | G16 | c4 z4 E6 F2 | G12 G4 | A4 B4 c4 c4 | %169
 B12 B4 | (B4 c4 d4) (c2 B2) | c4 (B2 A2) G4 A4 | G12 G4 | G16 |] %174
V:7
 E4 z4 E6 F2 | (D8 C4) E4 | F4 G4 G4 ^F4 | G12 A4 | (^G4 A8) =G4 | E4 G4 A4 [Gc]4 | %6
 c4 B2 A2 B4 c2 d2 | c16 | x16 | x16 | x16 | x16 | x16 | x16 | x16 | x16 | E4 z4 E6 C2 | %17
 (D8 C4) E4 | F4 G4 G4 ^F4 | G12 A4 | ^G4 (A8 =G4 | (A2) G2) F4 E4 F4 | D12 (E2 F2) | E16 | %24
 C8 (D4 B,4) | (C4 D4) C8 | F4 E4 E4 ^D4 | E16 | z4 E4 D4 C4 | C4 D4 E4 C4 | D4 E4 D4 ^F4 | G16 | %32
 E4 z4 E6 C2 | (D8 C4) E4 | F4 G4 G4 ^F4 | G12 A4 | ^G4 (A8 =G4 | (A2) G2) F4 E4 F4 | D12 (E2 F2) | %39
 E16 | B,4 | (C4 [DG]4 [CG]4) [CA]4 | [DG]4 C4 B,4 E4 | E4 D4 C4 (^F2 E2) | ^D12 ^F4 | %45
 E4 ^F4 G4 G4 | G4 ^F4 E4 G4 | (G4 ^F2 E2 F4) =F4 | D16 | E4 z4 E6 C2 | (D8 C4) E4 | F4 G4 G4 ^F4 | %52
 G12 A4 | ^G4 (A8 =G4 | (A2) G2) F4 E4 F4 | D12 (E2 F2) | E16 | G4 | c6 G2 G4 _E4 | D12 E4 | %60
 E6 E2 E4 D4 | E12 E4 | E12 D4 | D12 C4 | G8- G4 ^F4 | G16 | E4 z4 E6 C2 | (D8 C4) E4 | %68
 F4 G4 G4 ^F4 | G12 A4 | ^G4 (A8 =G4 | (A2) G2) F4 E4 F4 | D12 (E2 F2) | E16 | G4 | c6 x2 G4 _E4 | %76
 D12 E4 | E6 E2 E4 D4 | E12 E4 | E12 D4 | D12 C4 | G8- G4 ^F4 | G16 | E4 z4 E6 C2 | (D8 C4) E4 | %85
 F4 G4 G4 ^F4 | G12 A4 | ^G4 (A8 =G4 | (A2) G2) F4 E4 F4 | D12 (E2 F2) | E16 | E8 C6 C2 | %92
 (D8 C4) E4 | F4 G4 G4 ^F4 | G12 A4 | ^G4 A8 G4 | (A2 G2) F4 E4 F4 | D12 (E2 F2) | E16 | %99
 E4 z4 E6 C2 | (D8 C4) E4 | F4 G4 G4 ^F4 | G12 A4 | ^G4 (A8 =G4 | (A2) G2) F4 E4 F4 | D12 (E2 F2) | %106
 E16 | E4 | C8 D4 B,4 | C4 D4 C8 | F4 E4 E4 ^D4 | E16 | z4 E4 D4 C4 | C4 D4 E4 C4 | D4 E4 D4 ^F4 | %115
 G16 | E4 z4 E6 C2 | (D8 C4) E4 | F4 G4 G4 ^F4 | G12 A4 | ^G4 (A8 =G4 | (A2) G2) F4 E4 F4 | %122
 D12 (E2 F2) | E16 | G4 | c6 x2 G4 _E4 | D12 E4 | E6 E2 E4 D4 | E12 E4 | E12 D4 | D12 C4 | %131
 G8- G4 ^F4 | G16 | E4 z4 E6 C2 | (D8 C4) E4 | F4 G4 G4 ^F4 | G12 A4 | ^G4 (A8 =G4 | %138
 (A2) G2) F4 E4 F4 | D12 (E2 F2) | E16 | G4 | c6 x2 G4 _E4 | D12 E4 | E6 E2 E4 D4 | E12 E4 | %146
 E12 D4 | D12 C4 | G8- G4 ^F4 | G16 | E4 z4 E6 C2 | (D8 C4) E4 | F4 G4 G4 ^F4 | G12 A4 | %154
 ^G4 (A8 =G4 | (A2) G2) F4 E4 F4 | D12 (E2 F2) | E16 | E8 C6 C2 | (D8 C4) E4 | F4 G4 G4 ^F4 | %161
 G12 A4 | ^G4 A8 G4 | (A2 G2) F4 E4 F4 | D12 (E2 F2) | E16 | E4 z4 E6 C2 | (D8 C4) E4 | %168
 F4 G4 G4 ^F4 | G12 A4 | ^G4 (A8 =G4 | (A2) G2) F4 E4 F4 | D12 (E2 F2) | E16 |] %174
V:8
 z16 | z16 | z16 | z16 | z16 | z16 | z16 | z16 | z16 | z16 | z16 | z16 | z16 | z16 | z16 | z16 | %16
 z16 | z16 | z16 | z16 | z16 | z16 | z16 | z16 | z16 | z16 | z16 | z16 | z16 | z16 | z16 | z16 | %32
 z16 | z16 | z16 | z16 | z16 | z16 | z16 | z16 | z4 | (^F,4 =F,4 E,4) _E,4 | %42
 (D,4 E,2 ^F,2 G,4) B,4 | A,4 ^G,4 A,6 =G,2 | ^F,12 B,4 | B,4 D4 D4 C4 | G,4 B,4 B,4 E4 | D12 C4 | %48
 (G,4 F,4 E,4 D,4) | z16 | z16 | z16 | z16 | z16 | z16 | z16 | z16 | z4 | z16 | z16 | z16 | z16 | %62
 z16 | z16 | z16 | z16 | z16 | z16 | z16 | z16 | z16 | z16 | z16 | z16 | z4 | z16 | z16 | z16 | %78
 z16 | z16 | z16 | z16 | z16 | z16 | z16 | z16 | z16 | z16 | z16 | z16 | z16 | z16 | z16 | z16 | %94
 z16 | z16 | z16 | z16 | z16 | z16 | z16 | z16 | z16 | z16 | z16 | z16 | z16 | z4 | z16 | z16 | %110
 z16 | z16 | z16 | z16 | z16 | z16 | z16 | z16 | z16 | z16 | z16 | z16 | z16 | z16 | z4 | z16 | %126
 z16 | z16 | z16 | z16 | z16 | z16 | z16 | z16 | z16 | z16 | z16 | z16 | z16 | z16 | z16 | z4 | %142
 z16 | z16 | z16 | z16 | z16 | z16 | z16 | z16 | z16 | z16 | z16 | z16 | z16 | z16 | z16 | z16 | %158
 z16 | z16 | z16 | z16 | z16 | z16 | z16 | z16 | z16 | z16 | z16 | z16 | z16 | z16 | z16 | z16 |] %174
V:9
 [C,G,C]4 z4 [A,C]6 [A,C]2 | ([G,C]4 B,4 C4) C4 | C4 D4 C4 A,4 | (B,4 C4 D4) ^D4 | (E8 F4) E,4 | %5
 [A,C]4 [G,B,]4 [F,C]4 [E,C]4 | E4 D2 C2 D4 E2 F2 | C16 | x16 | x16 | x16 | x16 | x16 | x16 | x16 | %15
 x16 | [C,G,C]4 z4 [A,C]6 [A,C]2 | ([G,C]4 B,4 C4) C4 | C4 D4 C4 A,4 | (B,4 C4 D4) ^D4 | %20
 (E8 F4) [E,D]4 | [A,C]4 [B,D]4 [CE]4 [F,C]4 | (C4 B,2 A,2 B,4) (C2 D2) | [C,G,C]16 | G,16- | %25
 G,16 | [A,C]4 [G,_B,]4 [F,A,]4 [F,A,]4 | B,16 | A,8 ^G,4 A,4 | ^F,4 G,4- G,4 =F,4 | %30
 E,4 C4 B,4 C4 | [G,B,]16 | [C,G,C]4 z4 [A,C]6 [A,C]2 | ([G,C]4 B,4 C4) C4 | C4 D4 C4 A,4 | %35
 (B,4 C4 D4) ^D4 | (E8 F4) [E,D]4 | [A,C]4 [B,D]4 [CE]4 [F,C]4 | (C4 B,2 A,2 B,4) (C2 D2) | %39
 [C,G,C]16 | G,4 | z4 z4 z4 z4 | x16 | x16 | x16 | x16 | x16 | x16 | x16 | %49
 [C,G,C]4 z4 [A,C]6 [A,C]2 | ([G,C]4 B,4 C4) C4 | C4 D4 C4 A,4 | (B,4 C4 D4) ^D4 | (E8 F4) [E,D]4 | %54
 [A,C]4 [B,D]4 [CE]4 [F,C]4 | (C4 B,2 A,2 B,4) (C2 D2) | [C,G,C]16 | G,4 | C6 G,2 C4 C4 | %59
 (C8 B,4) D4 | C6 B,2 A,4 A,4 | B,12 B,4 | (A,6 D2 C4) A,4 | (G,6 C2 B,4) G,4 | B,4 A,8 C4 | %65
 (B,4 A,4 G,4 F,4) | [C,G,C]4 z4 [A,C]6 [A,C]2 | ([G,C]4 B,4 C4) C4 | C4 D4 C4 A,4 | %69
 (B,4 C4 D4) ^D4 | (E8 F4) [E,D]4 | [A,C]4 [B,D]4 [CE]4 [F,C]4 | (C4 B,2 A,2 B,4) (C2 D2) | %73
 [C,G,C]16 | G,4 | C6 G,2 C4 C4 | (C8 B,4) D4 | C6 B,2 A,4 A,4 | B,12 B,4 | (A,6 D2 C4) A,4 | %80
 (G,6 C2 B,4) G,4 | B,4 A,8 C4 | (B,4 A,4 G,4 F,4) | [C,G,C]4 z4 [A,C]6 [A,C]2 | %84
 ([G,C]4 B,4 C4) C4 | C4 D4 C4 A,4 | (B,4 C4 D4) ^D4 | (E8 F4) [E,D]4 | %88
 [A,C]4 [B,D]4 [CE]4 [F,C]4 | (C4 B,2 A,2 B,4) (C2 D2) | [C,G,C]16 | [G,C]8 A,6 A,2 | %92
 [G,C]4 [F,B,]4 [E,C]4 C4 | C4 D4 C4 A,4 | B,4 C4 D4 ^D4 | E8 F4 D4 | C4 D4 E4 C4 | %97
 (C4 B,2 A,2 B,4) (C2 D2) | C16 | [C,G,C]4 z4 [A,C]6 [A,C]2 | ([G,C]4 B,4 C4) C4 | C4 D4 C4 A,4 | %102
 (B,4 C4 D4) ^D4 | (E8 F4) [E,D]4 | [A,C]4 [B,D]4 [CE]4 [F,C]4 | (C4 B,2 A,2 B,4) (C2 D2) | %106
 [C,G,C]16 | z4 | G,16- | G,16 | C4 _B,4 A,4 A,4 | B,16 | A,8 ^G,4 A,4 | ^F,4 G,4- G,4 F,4 | %114
 G,4 C4 B,4 C4 | [G,B,]16 | [C,G,C]4 z4 [A,C]6 [A,C]2 | ([G,C]4 B,4 C4) C4 | C4 D4 C4 A,4 | %119
 (B,4 C4 D4) ^D4 | (E8 F4) [E,D]4 | [A,C]4 [B,D]4 [CE]4 [F,C]4 | (C4 B,2 A,2 B,4) (C2 D2) | %123
 [C,G,C]16 | G,4 | C6 G,2 C4 C4 | (C8 B,4) D4 | C6 B,2 A,4 A,4 | B,12 B,4 | (A,6 D2 C4) A,4 | %130
 (G,6 C2 B,4) G,4 | B,4 A,8 C4 | (B,4 A,4 G,4 F,4) | [C,G,C]4 z4 [A,C]6 [A,C]2 | %134
 ([G,C]4 B,4 C4) C4 | C4 D4 C4 A,4 | (B,4 C4 D4) ^D4 | (E8 F4) [E,D]4 | %138
 [A,C]4 [B,D]4 [CE]4 [F,C]4 | (C4 B,2 A,2 B,4) (C2 D2) | [C,G,C]16 | G,4 | C6 G,2 C4 C4 | %143
 (C8 B,4) D4 | C6 B,2 A,4 A,4 | B,12 B,4 | (A,6 D2 C4) A,4 | (G,6 C2 B,4) G,4 | B,4 A,8 C4 | %149
 (B,4 A,4 G,4 F,4) | [C,G,C]4 z4 [A,C]6 [A,C]2 | ([G,C]4 B,4 C4) C4 | C4 D4 C4 A,4 | %153
 (B,4 C4 D4) ^D4 | (E8 F4) [E,D]4 | [A,C]4 [B,D]4 [CE]4 [F,C]4 | (C4 B,2 A,2 B,4) (C2 D2) | %157
 [C,G,C]16 | [G,C]8 A,6 A,2 | [G,C]4 [F,B,]4 [E,C]4 C4 | C4 D4 C4 A,4 | B,4 C4 D4 ^D4 | E8 F4 D4 | %163
 C4 D4 E4 C4 | (C4 B,2 A,2 B,4) (C2 D2) | C16 | [C,G,C]4 z4 [A,C]6 [A,C]2 | ([G,C]4 B,4 C4) C4 | %168
 C4 D4 C4 A,4 | (B,4 C4 D4) ^D4 | (E8 F4) [E,D]4 | [A,C]4 [B,D]4 [CE]4 [F,C]4 | %172
 (C4 B,2 A,2 B,4) (C2 D2) | [C,G,C]16 |] %174
V:10
 C,,4 z4 A,,6 A,,2 | (G,,4 F,4 E,4) C,4 | F,4 F,4 E,4 A,4 | (G,4 A,4 G,4) D,4 | %4
 (E,4 D,2 C,2) B,,4 E,,4 | A,,4 G,,4 F,,4 E,,4 | [G,,G,-]16 | [E,,C,G,]16 | x16 | x16 | x16 | x16 | %12
 x16 | x16 | x16 | x16 | C,,4 z4 A,,6 A,,2 | (G,,4 F,4 E,4) C,4 | D,4 D,4 C,4 A,4 | %19
 (G,4 A,4 G,4) F,4 | (E,4 D,2 C,2 B,,4) E,,4 | A,,4 G,,4 C,4 F,,4 | [G,,G,]12 [G,,G,]4 | C,,16 | %24
 C,8 (B,,4 G,,4) | (A,,4 B,,4 C,4) _B,,4 | A,,4 G,,4 F,,4 F,4 | E,4 F,4 E,4 D,4 | C,8 B,,4 A,,4 | %29
 (A,,4 B,,4 C,4) A,,4 | B,,4 C,4 D,4 D,4 | (G,,4 F,,4 E,,4 D,,4) | C,,4 z4 A,,6 A,,2 | %33
 (G,,4 F,4 E,4) C,4 | D,4 D,4 C,4 A,4 | (G,4 A,4 G,4) F,4 | (E,4 D,2 C,2 B,,4) E,,4 | %37
 A,,4 G,,4 C,4 F,,4 | [G,,G,]12 [G,,G,]4 | C,,16 | G,,4 | G,,16- | G,,12 E,4 | C,4 B,,4 A,,4 A,,4 | %44
 B,,12 ^D,4 | (E,4 D,4 G,4) E,4 | B,,4 D,4 E,4 A,,4 | D,12 D,4 | G,4 F,4 E,4 D,4 | %49
 C,,4 z4 A,,6 A,,2 | (G,,4 F,4 E,4) C,4 | D,4 D,4 C,4 A,4 | (G,4 A,4 G,4) F,4 | %53
 (E,4 D,2 C,2 B,,4) E,,4 | A,,4 G,,4 C,4 F,,4 | [G,,G,]12 [G,,G,]4 | C,,16 | G,4 | %58
 C6 G,2 E,4 ^F,4 | (G,4 A,4 B,4) ^G,4 | A,6 C,2 C,4 F,4 | E,12 D,4 | (C,6 B,,2 A,,4) C,4 | %63
 (B,,6 A,,2 G,,4) E,4 | B,,4 C,4 D,4 D,4 | (G,4 F,4 E,4 D,4) | C,,4 z4 A,,6 A,,2 | %67
 (G,,4 F,4 E,4) C,4 | D,4 D,4 C,4 A,4 | (G,4 A,4 G,4) F,4 | E,4 D,2 C,2 B,,4 E,,4 | %71
 A,,4 G,,4 C,4 F,,4 | [G,,G,]12 [G,,G,]4 | C,,16 | G,4 | C6 G,2 E,4 ^F,4 | (G,4 A,4 B,4) ^G,4 | %77
 A,6 C,2 C,4 F,4 | E,12 D,4 | (C,6 B,,2 A,,4) C,4 | (B,,6 A,,2 G,,4) E,4 | B,,4 C,4 D,4 D,4 | %82
 (G,4 F,4 E,4 D,4) | C,,4 z4 A,,6 A,,2 | (G,,4 F,4 E,4) C,4 | D,4 D,4 C,4 A,4 | (G,4 A,4 G,4) F,4 | %87
 E,4 D,2 C,2 B,,4 E,,4 | A,,4 G,,4 C,4 F,,4 | [G,,G,]12 [G,,G,]4 | C,,16 | C,8 A,,6 A,,2 | %92
 (G,,4 F,4 E,4) C,4 | F,4 F,4 E,4 A,4 | (G,4 A,4 G,4) F,4 | (E,4 D,2 C,2 B,,4) E,4 | %96
 A,4 B,4 C4 F,4 | G,12 [G,,G,]4 | [C,G,]16 | C,,4 z4 A,,6 A,,2 | (G,,4 F,4 E,4) C,4 | %101
 D,4 D,4 C,4 A,4 | (G,4 A,4 G,4) F,4 | E,4 D,2 C,2 B,,4 E,,4 | A,,4 G,,4 C,4 F,,4 | %105
 [G,,G,]12 [G,,G,]4 | C,,16 | x4 | C,8 B,,4 G,,4 | (A,,4 B,,4 C,4 _B,,4) | A,,4 G,,4 F,,4 A,4 | %111
 (E,4 F,4 E,4 D,4) | C,8 B,,4 A,,4 | (A,,4 B,,4 C,4) A,,4 | B,,4 C,4 D,4 D,4 | %115
 (G,,4 F,,4 E,,4 D,,4) | C,,4 z4 A,,6 A,,2 | (G,,4 F,4 E,4) C,4 | D,4 D,4 C,4 A,4 | %119
 (G,4 A,4 G,4) F,4 | E,4 D,2 C,2 B,,4 E,,4 | A,,4 G,,4 C,4 F,,4 | [G,,G,]12 [G,,G,]4 | C,,16 | %124
 G,4 | C6 G,2 E,4 ^F,4 | (G,4 A,4 B,4) ^G,4 | A,6 C,2 C,4 F,4 | E,12 D,4 | (C,6 B,,2 A,,4) C,4 | %130
 (B,,6 A,,2 G,,4) E,4 | B,,4 C,4 D,4 D,4 | (G,4 F,4 E,4 D,4) | C,,4 z4 A,,6 A,,2 | %134
 (G,,4 F,4 E,4) C,4 | D,4 D,4 C,4 A,4 | (G,4 A,4 G,4) F,4 | E,4 D,2 C,2 B,,4 E,,4 | %138
 A,,4 G,,4 C,4 F,,4 | [G,,G,]12 [G,,G,]4 | C,,16 | G,4 | C6 G,2 E,4 ^F,4 | (G,4 A,4 B,4) ^G,4 | %144
 A,6 C,2 C,4 F,4 | E,12 D,4 | (C,6 B,,2 A,,4) C,4 | (B,,6 A,,2 G,,4) E,4 | B,,4 C,4 D,4 D,4 | %149
 (G,4 F,4 E,4 D,4) | C,,4 z4 A,,6 A,,2 | (G,,4 F,4 E,4) C,4 | D,4 D,4 C,4 A,4 | (G,4 A,4 G,4) F,4 | %154
 E,4 D,2 C,2 B,,4 E,,4 | A,,4 G,,4 C,4 F,,4 | [G,,G,]12 [G,,G,]4 | C,,16 | C,8 A,,6 A,,2 | %159
 (G,,4 F,4 E,4) C,4 | F,4 F,4 E,4 A,4 | (G,4 A,4 G,4) F,4 | (E,4 D,2 C,2 B,,4) E,4 | %163
 A,4 B,4 C4 F,4 | G,12 [G,,G,]4 | [C,G,]16 | C,,4 z4 A,,6 A,,2 | (G,,4 F,4 E,4) C,4 | %168
 D,4 D,4 C,4 A,4 | (G,4 A,4 G,4) F,4 | E,4 D,2 C,2 B,,4 E,,4 | A,,4 G,,4 C,4 F,,4 | %172
 [G,,G,]12 [G,,G,]4 | C,,16 |] %174

